X:1210
T:O! Twine a Thatch (Watch )
A:Wyresdale, Lancashire
B:E and J Winder, 1835-41
L:1/8
M:2/4
O:England
Z:Richard Robinson 
%%Dancenotes:the 1st lady and 2nd gentleman change places, 2nd lady 1st gent: do the same
%%Dancenotes:lead down the middle up again & right & up
%%TUNEURL: http://www.leeds.ac.uk/music/Info/RRTuneBk/gettune/00001168.html
%%ID:00001168
K:G
d/c/ | Bdgf | agec   | edcG           | A2 z \
d/c/ | Bdgf | (ag)ec | Be/d/ c/B/c/A/ | G2 z ||
B | Ac ed/c/ | Bda B | Ac ed/c/ | B2 z \
d | ^cBA g | fed (3(b/g/e/) | d>d ^c/d/e/c/ | d2 :|
